X:466
T: HERBEI IHR LEUTEL KOMMT ZU HAUF
N: E1721
O: Europa, Mitteleuropa, Deutschland, Hildburghausen
R: Scherz - Lied, Guckkasten - Lied
M: 2/4
L: 1/16
K: F
C2 | F3FA2G2 | c2c2c2
c2 | f2c2A2F2 | c2ccc2
c2 | G2G2G2A2 | B2c2d2
d2 | c2B2B2G2 | F2A2A2

@@@ Tune index: 5150
